img/icons/income.svg

<svg width="30" height="30" viewBox="0 0 30 30" fill="none" xmlns="http://www.w3.org/2000/svg">
<g clip-path="url(#clip0_31_41)">
<path d="M10.0196 21.7969C10.0196 16.3044 14.4881 11.836 19.9805 11.836V10.5469H22.6172C22.9827 10.5469 23.3101 10.3207 23.4393 9.97882C23.5686 9.63693 23.4728 9.25074 23.1987 9.00892L13.2378 0.219858C12.9056 -0.0732861 12.407 -0.0732861 12.0748 0.219858L2.11383 9.00892C1.83979 9.25074 1.74399 9.63693 1.87325 9.97882C2.00256 10.3207 2.32987 10.5469 2.69537 10.5469H5.33209V29.1211C5.33209 29.6065 5.72561 30 6.211 30H14.3368C11.731 28.2016 10.0196 25.1956 10.0196 21.7969Z" fill="white"/>
<path d="M20.6562 22.4453V25.1975C21.1783 24.9439 21.4875 24.4393 21.5678 23.9618C21.6118 23.6995 21.6744 22.8205 20.6562 22.4453Z" fill="white"/>
<path d="M18.6473 19.1471C18.5796 19.507 18.669 19.8441 18.8753 20.0058C18.9696 20.0798 19.0771 20.1519 19.1943 20.2222V18.3281C18.8732 18.5187 18.7018 18.858 18.6473 19.1471Z" fill="white"/>
<path d="M19.9805 13.5938C15.4573 13.5938 11.7773 17.2737 11.7773 21.7969C11.7773 26.3201 15.4573 30 19.9805 30C24.5037 30 28.1836 26.3201 28.1836 21.7969C28.1836 17.2737 24.5037 13.5938 19.9805 13.5938ZM23.0132 24.2067C22.8967 24.8997 22.5481 25.5428 22.0315 26.0173C21.6375 26.3794 21.1709 26.6255 20.6571 26.7456V27.3633C20.6571 27.7678 20.3292 28.0957 19.9247 28.0957C19.5202 28.0957 19.1923 27.7678 19.1923 27.3633V26.8115C18.534 26.7617 17.9998 26.5954 17.2351 26.0951C16.8966 25.8737 16.8017 25.4197 17.0231 25.0812C17.2446 24.7428 17.6985 24.6478 18.037 24.8692C18.5005 25.1724 18.7884 25.2943 19.1923 25.3404V21.8713C18.6708 21.6347 18.2843 21.4083 17.9693 21.1613C17.3279 20.6582 17.0354 19.7835 17.2059 18.8787C17.3921 17.8905 18.0793 17.1044 18.9993 16.8272C19.0643 16.8077 19.1285 16.7905 19.1923 16.7747V16.2305C19.1923 15.826 19.5203 15.498 19.9247 15.498C20.3292 15.498 20.6572 15.826 20.6572 16.2305V16.7066C21.5754 16.8573 22.2028 17.3481 22.3542 17.6437C22.5386 18.0037 22.3963 18.4451 22.0363 18.6295C21.7292 18.7868 21.3629 18.7063 21.1474 18.4559C21.1007 18.4185 20.9316 18.2948 20.6572 18.2101V20.8888C20.8123 20.9468 20.9675 21.0027 21.1196 21.0565C22.509 21.5476 23.2523 22.7841 23.0132 24.2067Z" fill="white"/>
</g>
<defs>
<clipPath id="clip0_31_41">
<rect width="30" height="30" fill="white"/>
</clipPath>
</defs>
</svg>

<svg width="30" height="30" viewBox="0 0 30 30" fill="none" xmlns="http://www.w3.org/2000/svg"><g clip-path="url(#a)" fill="#fff"><path d="M10.02 21.797c0-5.493 4.468-9.961 9.96-9.961v-1.29h2.637A.879.879 0 0 0 23.2 9.01L13.238.219a.879.879 0 0 0-1.163 0L2.114 9.01a.879.879 0 0 0 .581 1.538h2.637V29.12c0 .486.394.879.879.879h8.126a9.957 9.957 0 0 1-4.317-8.203Zm10.636.648v2.753a1.7 1.7 0 0 0 .912-1.236c.044-.262.106-1.142-.912-1.517Z"/><path d="M18.647 19.147c-.067.36.022.697.228.859.095.074.202.146.32.216v-1.894c-.322.19-.493.53-.548.82Z"/><path d="M19.98 13.594c-4.523 0-8.203 3.68-8.203 8.203S15.457 30 19.981 30c4.523 0 8.203-3.68 8.203-8.203s-3.68-8.203-8.204-8.203Zm3.033 10.613a3.187 3.187 0 0 1-.982 1.81c-.393.362-.86.608-1.374.729v.617a.732.732 0 1 1-1.465 0v-.552c-.658-.05-1.192-.216-1.957-.716a.732.732 0 0 1 .802-1.226c.463.303.751.425 1.155.471v-3.469c-.521-.236-.908-.463-1.223-.71-.641-.503-.934-1.378-.763-2.282.186-.989.873-1.775 1.793-2.052.065-.02.13-.037.193-.052v-.544a.733.733 0 0 1 1.465 0v.476c.918.15 1.546.641 1.697.937a.732.732 0 0 1-1.207.812 1.532 1.532 0 0 0-.49-.246v2.679c.155.058.31.114.463.168 1.389.49 2.132 1.727 1.893 3.15Z"/></g><defs><clipPath id="a"><path fill="#fff" d="M0 0h30v30H0z"/></clipPath></defs></svg>
